!!! OTL: Berkowitz404
!!! Chapter: 1
!!! Section: III
!!! Page: 100
!!! Mode: 
!!! Encoder: DJB
**kern
*staff1
*I"Piano
=1-
*clefC3
*k[f#]
*G:
*M3/4
4r
4r
8r
8e\
=2
8g\L
8d\J
8r
[8g#\
8g#\L]
16a\L
16b\JJ
=3
8a\L
8d\J
8r
[8a#\
8a#\L]
16b\L
16cc\JJ
=4
8.b\L
16g\Jk
8e\L
8ee\J
16dd\LL
16cc\
16b\
16a\JJ
=5
4g\
4f#\
8r
16d\LL
16e\JJ
=6
8fn\L
8B\J
8r
[8a\
8a\L]
16g\L
16f#\JJ
=7
!!linebreak:original
8g\L
8c\J
8g\L
[8c#\J
16c#\LL]
16d\
16e\
16f#\JJ
=8
16g\LL
16a\
16b\
16g\JJ
8cc\L
8b\J
8.a\L
16g\Jk
=9
8f#\L
16e\L
16f#\JJ
4a\
8g\
8r
==
*-
